X:2
T:JB waltz
M:3/4
L:1/4
K:G
"Gmaj"B2B | "Am7"B3 | "Bm7"B2B | "Em7"B3 | "Am7"Bd2 | "Eb7"G2A | "Gmaj7"B3- | B3 |
"C"c2c | "Cm7"c2c | "Gmaj7"cB2 | "G6"B2B | "C#m7b5"BA2 | "A7"A2B | "Eb7"A3 | "D7"d3 |
"G"B2B | "Gmaj7"B3 | "Em7"B2B | "G7/D"B3 | "Cmaj7"Bd2 | "F9"G2A | "Bm7b5"B3- | "E7"B3 |
"Am7"c2c | "Ab7" c2c/d/ | "G"cB2 | "Cmaj7"B2B | "Am7b5"dd2 | "D7"c2A | "Gmaj7"G3- | G3 ||
